app/images/social/mail.svg

<?xml version="1.0" encoding="UTF-8" standalone="no"?>
<svg width="28px" height="20px" viewBox="0 0 28 20" version="1.1" xmlns="http://www.w3.org/2000/svg" xmlns:xlink="http://www.w3.org/1999/xlink" xmlns:sketch="http://www.bohemiancoding.com/sketch/ns">
    <!-- Generator: Sketch Beta 3.3 (11970) - http://www.bohemiancoding.com/sketch -->
    <title>mail</title>
    <desc>Created with Sketch Beta.</desc>
    <defs></defs>
    <g id="Art" stroke="none" stroke-width="1" fill="none" fill-rule="evenodd" sketch:type="MSPage">
        <g id="Artboard-2" sketch:type="MSArtboardGroup" transform="translate(-626.000000, -721.000000)" fill="#FFFFFF">
            <g id="mail" sketch:type="MSLayerGroup" transform="translate(570.000000, 703.000000)">
                <g transform="translate(56.000000, 18.000000)" id="Shape" sketch:type="MSShapeGroup">
                    <path d="M27.5058519,18.1180519 L19.6532778,9.5874026 L27.5129815,1.69974026 C27.675537,1.53662338 27.9535926,1.65194805 27.9535926,1.88233766 L27.9535926,17.9428571 C27.9535926,18.1781818 27.6651667,18.2911688 27.5058519,18.1180519 L27.5058519,18.1180519 Z M15.5123889,13.7432468 C15.0616667,14.1955844 14.4498148,14.4498701 13.8117778,14.4498701 L13.7914259,14.4498701 C13.1422407,14.4498701 12.5195,14.1918182 12.059963,13.7322078 L9.7322037,11.4041558 L1.74494444,19.5501299 C1.58459259,19.7136364 1.70022222,19.9898701 1.92901852,19.9898701 L26.1825926,19.9898701 C26.4075,19.9898701 26.5246852,19.7216883 26.3722407,19.5561039 L18.3761667,10.8693506 L15.5123889,13.7432468 L15.5123889,13.7432468 Z M13.7915556,12.6401299 L13.7920741,12.6401299 C13.9644815,12.6401299 14.1265185,12.5727273 14.2483704,12.4505195 L26.1374815,0.518961039 C26.2997778,0.355974026 26.1846667,0.0777922078 25.9548333,0.0777922078 L1.58835185,0.0777922078 C1.35838889,0.0777922078 1.24327778,0.356493506 1.40609259,0.519220779 L13.336037,12.4512987 C13.4576296,12.5732468 13.6194074,12.6401299 13.7915556,12.6401299 L13.7915556,12.6401299 Z M0.0636481481,2.35714286 L0.0636481481,18.0501299 C0.0636481481,18.2815584 0.343907407,18.3963636 0.505814815,18.2312987 L8.45392593,10.1253247 L0.50412963,2.17415584 C0.341444444,2.01155844 0.0636481481,2.12701299 0.0636481481,2.35714286 L0.0636481481,2.35714286 Z"></path>
                </g>
            </g>
        </g>
    </g>
</svg>

<svg width="28" height="20" viewBox="0 0 28 20" xmlns="http://www.w3.org/2000/svg"><path d="M27.506 18.118l-7.853-8.53 7.86-7.888c.163-.163.44-.048.44.182v16.06c0 .236-.288.35-.447.176zm-11.994-4.375c-.45.453-1.062.707-1.7.707h-.02c-.65 0-1.272-.258-1.732-.718l-2.328-2.328-7.987 8.146c-.16.164-.045.44.184.44h24.253c.224 0 .342-.268.19-.434l-7.997-8.687-2.864 2.873zm-1.72-1.103c.172 0 .335-.067.456-.19L26.138.52c.162-.164.047-.442-.183-.442H1.588c-.23 0-.345.278-.182.44l11.93 11.933c.122.123.283.19.456.19zM.064 2.357V18.05c0 .232.28.346.442.18l7.948-8.105-7.95-7.95c-.163-.163-.44-.048-.44.182z" fill="#FFF" fill-rule="evenodd"/></svg>
